X: 21942
T: Kitty Got A Clinking Coming From The Fair
R: hornpipe
M: 4/4
K: Gmajor
GB~B2 cdeg|dBGA BA~A2|GB~B2 cdec|dBGA BGGF|
GB~B2 cdeg|dBGA BA~A2|cBcd egfe|dBGA BAGF:|
G2Bd ~g3a|gedB deg2|G2Bd ~g3d|egdB ABBA|
G2Bd ~g3a|gedB dega|babg agaf|gedB A2BA:|

